logo/flow.svg

<?xml version="1.0" encoding="UTF-8"?>
<svg width="256px" height="267px" viewBox="0 0 256 267" version="1.1" xmlns="http://www.w3.org/2000/svg" preserveAspectRatio="xMidYMid">
    <title>Flow</title>
    <g>
        <polygon fill="#FFCA20" opacity="0.7" points="237.300227 115.091771 148.489503 26.2916065 237.300227 26.2916065"></polygon>
        <polygon fill="#FFCA20" opacity="0.7" points="86.287152 0 136.631883 0 175.108435 38.465993 86.287152 38.465993"></polygon>
        <path d="M89.1697257,88.8212827 L0.359001856,0 L107.140936,0 L107.140936,88.8107239 L89.1697257,88.8212827 Z M167.189276,177.621448 L256,266.432172 L167.189276,266.432172 L167.189276,177.621448 Z" fill="#FFCF39" opacity="0.9"></path>
        <path d="M107.140936,177.632007 L18.3407713,88.8107239 L107.151495,88.8107239 L107.151495,177.621448 L107.140936,177.632007 Z M202.783254,132.682862 L131.985976,61.8433491 L202.814931,61.8433491 L202.783254,132.682862 Z M211.061415,258.16457 L130.518292,177.632007 L211.061415,177.632007 L211.061415,258.16457 Z" fill="#FFE490" opacity="0.7"></path>
        <polygon fill="#FCBC7C" opacity="0.9" points="107.140936 70.7444834 36.3964529 0 107.140936 0"></polygon>
        <polygon fill="#F9A040" opacity="0.8" points="130.877294 177.621448 219.688018 266.432172 130.877294 266.432172"></polygon>
        <polygon fill="#F9A040" opacity="0.7" points="220.765024 213.07816 132.070448 124.383584 220.765024 124.383584"></polygon>
        <polygon fill="#FFCF39" opacity="0.9" points="131.985976 61.8433491 219.719695 149.577067 131.985976 149.577067"></polygon>
        <polygon fill="#FFC737" opacity="0.7" points="107.140936 266.083729 0 158.921675 107.140936 158.921675"></polygon>
    </g>
</svg>

<svg viewBox="0 0 256 267" xmlns="http://www.w3.org/2000/svg"><g fill="#FFCA20"><path opacity=".7" d="M237.3 115.09l-88.82-88.81 88.81 0Z"/><path opacity=".7" d="M86.28 0l50.34 0 38.47 38.46 -88.83 0Z"/></g><path opacity=".9" fill="#FFCF39" d="M89.16 88.82L.34-.01h106.78V88.8l-17.98.01Zm78.01 88.8l88.81 88.81h-88.82v-88.82Z"/><path opacity=".7" fill="#FFE490" d="M107.14 177.63L18.33 88.8h88.81v88.81l-.02.01Zm95.64-44.95l-70.8-70.84h70.82l-.04 70.83Zm8.27 125.48l-80.55-80.54h80.54v80.53Z"/><path opacity=".9" fill="#FCBC7C" d="M107.14 70.74L36.39-.01l70.74 0Z"/><g fill="#F9A040"><path opacity=".8" d="M130.87 177.62l88.81 88.81 -88.82 0Z"/><path opacity=".7" d="M220.76 213.07l-88.7-88.7 88.69 0Z"/></g><path opacity=".9" fill="#FFCF39" d="M131.98 61.84l87.73 87.73 -87.74 0Z"/><path opacity=".7" fill="#FFC737" d="M107.14 266.08L-.01 158.91l107.14 0Z"/></svg>
